src/topics/icons/dotcloud.svg

<svg height="169" preserveAspectRatio="xMidYMid" viewBox="0 0 256 169" width="256" xmlns="http://www.w3.org/2000/svg"><path d="m84.3130605 109.963033c-9.3932777 0-17.0179955 7.624718-17.0179955 17.010187 0 9.401086 7.6247178 17.017996 17.0179955 17.017996 9.3971817 0 17.0179955-7.61691 17.0179955-17.017996 0-9.385469-7.6208138-17.010187-17.0179955-17.010187m86.9249065-51.8582322c9.397182 0 17.010188-7.6169096 17.010188-17.0101872 0-9.40499-7.61691-17.0140914-17.010188-17.0140914-9.393277 0-17.014091 7.6130055-17.014091 17.0140914-.003904 9.3971817 7.61691 17.0101872 17.014091 17.0101872m.039041 51.8582322c-9.397181 0-17.010187 7.624718-17.010187 17.010187 0 9.401086 7.613006 17.017996 17.010187 17.017996 9.397182 0 17.010188-7.61691 17.010188-17.017996 0-9.385469-7.613006-17.010187-17.010188-17.010187m-87.0068927-51.8582322c9.3971817 0 17.0101877-7.6169096 17.0101877-17.0101872 0-9.40499-7.613006-17.0140914-17.0101877-17.0140914s-17.0101873 7.6130055-17.0101873 17.0140914c0 9.3971817 7.6130056 17.0101872 17.0101873 17.0101872m130.4712987 8.9833466c-9.393278 0-17.010187 7.6169096-17.010187 17.0101873 0 9.4010858 7.620814 17.0179953 17.010187 17.0179953 9.397182 0 17.014091-7.6169095 17.014091-17.0179953.003905-9.3932777-7.613005-17.0101873-17.014091-17.0101873m-86.924907-.1405478c-9.397182 0-17.014091 7.6169096-17.014091 17.0062832 0 9.4010858 7.616909 17.0179952 17.014091 17.0179952 9.393278 0 17.010187-7.6169094 17.010187-17.0179952.003904-9.3893736-7.613005-17.0062832-17.010187-17.0062832m87.385591-23.9321662c-1.093149 0-2.170682.0546575-3.232599.1366437.046849-.7808211.074178-1.5577381.074178-2.3463673 0-22.5344965-18.267309-40.8057098-40.801805-40.8057098-15.124505 0-28.308669 8.23375831-35.359483 20.4536082h-16.553407c-7.050814-12.21594578-20.2349785-20.4536082-35.3633869-20.4536082-22.5266882 0-40.8018057 18.2712133-40.8018057 40.8057098 0 .815958.0312329 1.631916.0819862 2.4400658-.8120539-.0468492-1.6241078-.0819862-2.44397-.0819862-22.5344964.0039041-40.8018056 18.2751175-40.8018056 40.8057098 0 22.5305928 18.2673092 40.8018058 40.8057098 40.8018058.9330811 0 1.85445-.039041 2.779723-.097603-.0663698.913561-.1015067 1.846642-.1015067 2.775819 0 22.538401 18.2673092 40.809614 40.7979015 40.809614 15.4095041 0 28.8122984-8.542183 35.7577014-21.144635h15.768682c6.941499 12.606356 20.352101 21.144635 35.749893 21.144635 22.534497 0 40.809614-18.271213 40.809614-40.809614 0-.991643-.054658-1.975477-.124931-2.943695.97993.070274 1.95986.113219 2.959311.113219 22.530593 0 40.797902-18.271214 40.797902-40.8096141 0-22.5305924-18.267309-40.7939975-40.797902-40.7939975m-131.0569141-28.7381199c12.8054658 0 23.4949061 9.038004 26.0403831 21.0899774h34.875374c2.545476-12.0519734 13.234917-21.0899774 26.036479-21.0899774 14.710669 0 26.625999 11.9114256 26.625999 26.6181907s-11.919234 26.6259989-26.625999 26.6259989c-12.703959 0-23.330934-8.9052645-25.977918-20.8166901h-35.000305c-2.650887 11.9114256-13.2700541 20.8166901-25.9779172 20.8166901-14.702861 0-26.6259989-11.9192338-26.6259989-26.6259989s11.927042-26.6181907 26.629903-26.6181907m87.4285361 139.7357405c-12.813273 0-23.514426-9.065332-26.052095-21.136826h-35.164277c-2.537669 12.071494-13.2388218 21.136826-26.0559999 21.136826-14.7028609 0-26.6259989-11.927042-26.6259989-26.625999 0-14.698956 11.923138-26.625998 26.6259989-26.625998 12.6883426 0 23.3036049 8.889648 25.9701089 20.76984h35.336058c2.6626-11.880192 13.273959-20.76984 25.962301-20.76984 14.706765 0 26.625999 11.927042 26.625999 26.625998 0 14.698957-11.915329 26.625999-26.622095 26.625999m43.01153-43.003721c-12.821082 0-23.518331-9.073141-26.056-21.1368264h-34.527908c-2.709449 11.8333434-13.293479 20.6566214-25.94278 20.6566214-12.65711 0-23.237236-8.823278-25.946685-20.6566214h-35.3516745c-2.7094491 11.8333434-13.297383 20.6566214-25.9427804 20.6566214-14.7067651 0-26.6259989-11.9192335-26.6259989-26.6181904 0-14.7106692 11.9231379-26.6259989 26.6259989-26.6259989 12.8601232 0 23.5886049 9.1160861 26.0794241 21.2461416h35.0744828c2.490819-12.1300555 13.223205-21.2461416 26.083328-21.2461416 12.85622 0 23.592509 9.1160861 26.075521 21.2461416h34.47325c2.670408-11.8880009 13.277863-20.7737449 25.974014-20.7737449 14.702861 0 26.625998 11.9153298 26.625998 26.625999.007809 14.6911486-11.915329 26.6259986-26.61819 26.6259986m-173.7365951-44.0617334c-9.3932776 0-17.0062832 7.6169096-17.0062832 17.0062832 0 9.4010858 7.6169097 17.0179952 17.0062832 17.0179952 9.4010858 0 17.0101873-7.6169094 17.0101873-17.0179952.0039041-9.3893736-7.6051974-17.0062832-17.0101873-17.0062832"/></svg>

<?xml version="1.0" encoding="UTF-8" standalone="no"?>
<svg width="256px" height="169px" viewBox="0 0 256 169" version="1.1" xmlns="http://www.w3.org/2000/svg" xmlns:xlink="http://www.w3.org/1999/xlink" preserveAspectRatio="xMidYMid">
    <g>
        <path d="M84.3130605,109.963033 C74.9197828,109.963033 67.295065,117.587751 67.295065,126.97322 C67.295065,136.374306 74.9197828,143.991216 84.3130605,143.991216 C93.7102422,143.991216 101.331056,136.374306 101.331056,126.97322 C101.331056,117.587751 93.7102422,109.963033 84.3130605,109.963033 M171.237967,58.1048008 C180.635149,58.1048008 188.248155,50.4878912 188.248155,41.0946136 C188.248155,31.6896236 180.631245,24.0805222 171.237967,24.0805222 C161.84469,24.0805222 154.223876,31.6935277 154.223876,41.0946136 C154.219972,50.4917953 161.840786,58.1048008 171.237967,58.1048008 M171.277008,109.963033 C161.879827,109.963033 154.266821,117.587751 154.266821,126.97322 C154.266821,136.374306 161.879827,143.991216 171.277008,143.991216 C180.67419,143.991216 188.287196,136.374306 188.287196,126.97322 C188.287196,117.587751 180.67419,109.963033 171.277008,109.963033 M84.2701153,58.1048008 C93.667297,58.1048008 101.280303,50.4878912 101.280303,41.0946136 C101.280303,31.6896236 93.667297,24.0805222 84.2701153,24.0805222 C74.8729336,24.0805222 67.259928,31.6935277 67.259928,41.0946136 C67.259928,50.4917953 74.8729336,58.1048008 84.2701153,58.1048008 M214.741414,67.0881474 C205.348136,67.0881474 197.731227,74.705057 197.731227,84.0983347 C197.731227,93.4994205 205.352041,101.11633 214.741414,101.11633 C224.138596,101.11633 231.755505,93.4994205 231.755505,84.0983347 C231.75941,74.705057 224.1425,67.0881474 214.741414,67.0881474 M127.816507,66.9475996 C118.419325,66.9475996 110.802416,74.5645092 110.802416,83.9538828 C110.802416,93.3549686 118.419325,100.971878 127.816507,100.971878 C137.209785,100.971878 144.826694,93.3549686 144.826694,83.9538828 C144.830598,74.5645092 137.213689,66.9475996 127.816507,66.9475996 M215.202098,43.0154334 C214.108949,43.0154334 213.031416,43.0700909 211.969499,43.1520771 C212.016348,42.371256 212.043677,41.594339 212.043677,40.8057098 C212.043677,18.2712133 193.776368,0 171.241872,0 C156.117367,0 142.933203,8.23375831 135.882389,20.4536082 L119.328982,20.4536082 C112.278168,8.23766242 99.0940035,0 83.9655951,0 C61.4389069,0 43.1637894,18.2712133 43.1637894,40.8057098 C43.1637894,41.6216678 43.1950223,42.4376258 43.2457756,43.2457756 C42.4337217,43.1989264 41.6216678,43.1637894 40.8018056,43.1637894 C18.2673092,43.1676935 0,61.4389069 0,83.9694992 C0,106.500092 18.2673092,124.771305 40.8057098,124.771305 C41.7387909,124.771305 42.6601598,124.732264 43.5854328,124.673702 C43.519063,125.587263 43.4839261,126.520344 43.4839261,127.449521 C43.4839261,149.987922 61.7512353,168.259135 84.2818276,168.259135 C99.6913317,168.259135 113.094126,159.716952 120.039529,147.1145 L135.808211,147.1145 C142.74971,159.720856 156.160312,168.259135 171.558104,168.259135 C194.092601,168.259135 212.367718,149.987922 212.367718,127.449521 C212.367718,126.457878 212.31306,125.474044 212.242787,124.505826 C213.222717,124.5761 214.202647,124.619045 215.202098,124.619045 C237.732691,124.619045 256,106.347831 256,83.8094309 C256,61.2788385 237.732691,43.0154334 215.202098,43.0154334 M84.1451839,14.2773135 C96.9506497,14.2773135 107.64009,23.3153175 110.185567,35.3672909 L145.060941,35.3672909 C147.606417,23.3153175 158.295858,14.2773135 171.09742,14.2773135 C185.808089,14.2773135 197.723419,26.1887391 197.723419,40.8955042 C197.723419,55.6022693 185.804185,67.5215031 171.09742,67.5215031 C158.393461,67.5215031 147.766486,58.6162386 145.119502,46.704813 L110.119197,46.704813 C107.46831,58.6162386 96.8491429,67.5215031 84.1412798,67.5215031 C69.4384188,67.5215031 57.5152809,55.6022693 57.5152809,40.8955042 C57.5152809,26.1887391 69.4423229,14.2773135 84.1451839,14.2773135 M171.57372,154.013054 C158.760447,154.013054 148.059294,144.947722 145.521625,132.876228 L110.357348,132.876228 C107.819679,144.947722 97.1185262,154.013054 84.3013481,154.013054 C69.5984872,154.013054 57.6753492,142.086012 57.6753492,127.387055 C57.6753492,112.688099 69.5984872,100.761057 84.3013481,100.761057 C96.9896907,100.761057 107.604953,109.650705 110.271457,121.530897 L145.607515,121.530897 C148.270115,109.650705 158.881474,100.761057 171.569816,100.761057 C186.276581,100.761057 198.195815,112.688099 198.195815,127.387055 C198.195815,142.086012 186.280486,154.013054 171.57372,154.013054 M214.58525,111.009333 C201.764168,111.009333 191.066919,101.936192 188.52925,89.8725066 L154.001342,89.8725066 C151.291893,101.70585 140.707863,110.529128 128.058562,110.529128 C115.401452,110.529128 104.821326,101.70585 102.111877,89.8725066 L66.7602025,89.8725066 C64.0507534,101.70585 53.4628195,110.529128 40.8174221,110.529128 C26.110657,110.529128 14.1914232,98.6098945 14.1914232,83.9109376 C14.1914232,69.2002684 26.1145611,57.2849387 40.8174221,57.2849387 C53.6775453,57.2849387 64.406027,66.4010248 66.8968462,78.5310803 L101.971329,78.5310803 C104.462148,66.4010248 115.194534,57.2849387 128.054657,57.2849387 C140.910877,57.2849387 151.647166,66.4010248 154.130178,78.5310803 L188.603428,78.5310803 C191.273836,66.6430794 201.881291,57.7573354 214.577442,57.7573354 C229.280303,57.7573354 241.20344,69.6726652 241.20344,84.3833344 C241.211249,99.074483 229.288111,111.009333 214.58525,111.009333 M40.8486549,66.9475996 C31.4553773,66.9475996 23.8423717,74.5645092 23.8423717,83.9538828 C23.8423717,93.3549686 31.4592814,100.971878 40.8486549,100.971878 C50.2497407,100.971878 57.8588422,93.3549686 57.8588422,83.9538828 C57.8627463,74.5645092 50.2536448,66.9475996 40.8486549,66.9475996" fill="#000000"></path>
    </g>
</svg>
